actions/48/bookmark-new.svg

<?xml version="1.0" encoding="UTF-8" standalone="no"?>
<!-- Created with Inkscape (http://www.inkscape.org/) -->

<svg
   xmlns:svg="http://www.w3.org/2000/svg"
   xmlns="http://www.w3.org/2000/svg"
   xmlns:xlink="http://www.w3.org/1999/xlink"
   version="1.1"
   width="48"
   height="48"
   id="svg3279">
  <defs
     id="defs3281">
    <linearGradient
       id="linearGradient8838">
      <stop
         id="stop8840"
         style="stop-color:black;stop-opacity:1"
         offset="0" />
      <stop
         id="stop8842"
         style="stop-color:black;stop-opacity:0"
         offset="1" />
    </linearGradient>
    <radialGradient
       cx="62.625"
       cy="4.625"
       r="10.625"
       fx="62.625"
       fy="4.625"
       id="radialGradient2499"
       xlink:href="#linearGradient8838"
       gradientUnits="userSpaceOnUse"
       gradientTransform="matrix(1,0,0,0.341176,0,3.047059)" />
    <linearGradient
       id="linearGradient3215">
      <stop
         id="stop3217"
         style="stop-color:#8c7200;stop-opacity:1"
         offset="0" />
      <stop
         id="stop3219"
         style="stop-color:#c4a000;stop-opacity:1"
         offset="1" />
    </linearGradient>
    <linearGradient
       x1="21.483376"
       y1="36.345936"
       x2="21.483376"
       y2="9.5799999"
       id="linearGradient2467"
       xlink:href="#linearGradient3215"
       gradientUnits="userSpaceOnUse" />
    <linearGradient
       id="linearGradient2250">
      <stop
         id="stop2252"
         style="stop-color:#ffc349;stop-opacity:1"
         offset="0" />
      <stop
         id="stop2256"
         style="stop-color:#ff921a;stop-opacity:1"
         offset="1" />
    </linearGradient>
    <linearGradient
       x1="21.483376"
       y1="21.671062"
       x2="21.483376"
       y2="33.409534"
       id="linearGradient2465"
       xlink:href="#linearGradient2250"
       gradientUnits="userSpaceOnUse" />
    <linearGradient
       id="linearGradient5178">
      <stop
         id="stop5180"
         style="stop-color:white;stop-opacity:1"
         offset="0" />
      <stop
         id="stop6155"
         style="stop-color:#ffdea1;stop-opacity:1"
         offset="0.8918919" />
      <stop
         id="stop5182"
         style="stop-color:#ffbd43;stop-opacity:0"
         offset="1" />
    </linearGradient>
    <linearGradient
       x1="21.483376"
       y1="9.463129"
       x2="21.483376"
       y2="26.294357"
       id="linearGradient5541"
       xlink:href="#linearGradient5178"
       gradientUnits="userSpaceOnUse"
       gradientTransform="matrix(1.5575239,0,0,1.5420736,-9.4936458,-12.492178)" />
    <linearGradient
       id="linearGradient3230">
      <stop
         id="stop3232"
         style="stop-color:#ffefa7;stop-opacity:1"
         offset="0" />
      <stop
         id="stop3234"
         style="stop-color:#ffc64c;stop-opacity:1"
         offset="1" />
    </linearGradient>
    <linearGradient
       x1="24.097157"
       y1="9.5958176"
       x2="23.673159"
       y2="22.839001"
       id="linearGradient2476"
       xlink:href="#linearGradient3230"
       gradientUnits="userSpaceOnUse"
       gradientTransform="matrix(1.3469077,0,0,1.3469077,-8.3257881,-6.6326722)" />
    <linearGradient
       id="linearGradient4222">
      <stop
         id="stop4224"
         style="stop-color:white;stop-opacity:1"
         offset="0" />
      <stop
         id="stop4226"
         style="stop-color:white;stop-opacity:0"
         offset="1" />
    </linearGradient>
    <linearGradient
       x1="24.138529"
       y1="-9.8008652"
       x2="24.138529"
       y2="47.272728"
       id="linearGradient4768"
       xlink:href="#linearGradient4222"
       gradientUnits="userSpaceOnUse"
       gradientTransform="matrix(0.5364316,0,0,0.5331957,-45.663201,28.012179)" />
    <linearGradient
       id="linearGradient2264">
      <stop
         id="stop2266"
         style="stop-color:#d7e866;stop-opacity:1"
         offset="0" />
      <stop
         id="stop2268"
         style="stop-color:#8cab2a;stop-opacity:1"
         offset="1" />
    </linearGradient>
    <linearGradient
       x1="24.103895"
       y1="15.168831"
       x2="24.103895"
       y2="32.485161"
       id="linearGradient4766"
       xlink:href="#linearGradient2264"
       gradientUnits="userSpaceOnUse"
       gradientTransform="matrix(0.8930497,0,0,0.8876627,-54.222035,20.004749)" />
  </defs>
  <g
     id="layer1">
    <path
       d="m 73.25,4.625 a 10.625,3.625 0 1 1 -21.25,0 10.625,3.625 0 1 1 21.25,0 z"
       transform="matrix(2.149872,0,0,2.5636643,-110.63573,26.84977)"
       id="path8836"
       style="opacity:0.3;fill:url(#radialGradient2499);fill-opacity:1;fill-rule:evenodd;stroke:none;stroke-width:0.99999988;marker:none;visibility:visible;display:inline;overflow:visible" />
    <path
       d="m 21.483376,9.9840555 c 0.919992,0 3.886028,7.4090065 4.630318,7.9497645 0.744289,0.540758 8.707228,1.072117 8.991522,1.947082 0.284293,0.874965 -5.845536,5.985341 -6.129829,6.860306 -0.284293,0.874965 1.671038,8.612369 0.926748,9.153127 -0.744289,0.540758 -7.498767,-3.709862 -8.41876,-3.709862 -0.919992,0 -7.67447,4.25062 -8.41876,3.709862 -0.744289,-0.540758 1.211042,-8.278163 0.926749,-9.153127 -0.284293,-0.874965 -6.4141217,-5.985342 -6.1298284,-6.860307 0.2842933,-0.874964 8.2472324,-1.406323 8.9915224,-1.947081 0.744289,-0.540758 3.710326,-7.9497645 4.630318,-7.9497645 z"
       transform="matrix(1.6508808,0,0,1.6568311,-11.466494,-15.045759)"
       id="path1307"
       style="fill:url(#linearGradient2465);fill-opacity:1;fill-rule:nonzero;stroke:url(#linearGradient2467);stroke-width:0.59997541;stroke-linecap:butt;stroke-linejoin:round;stroke-miterlimit:4;stroke-opacity:1;stroke-dasharray:none;stroke-dashoffset:0;marker:none;visibility:visible;display:inline;overflow:visible" />
    <path
       d="m 24,2.5 c 2.255601,4.3171106 4.478429,8.952433 6.73403,13.269542 4.843973,0.789864 9.951199,1.930733 14.795172,2.720597 -3.449934,3.457984 -6.89987,6.91597 -10.349804,10.373955 0.738138,4.805274 1.213021,9.259541 1.95116,14.064815 C 32.742781,40.748952 28.355003,38.568994 23.967226,36.389035 19.579447,38.568994 15.19167,40.748952 10.803892,42.928909 11.542029,38.123635 11.929163,33.581617 12.6673,28.776343 9.2173666,25.318358 5.7674325,21.860372 2.3174996,18.402388 7.1614709,17.612524 12.356449,16.559406 17.20042,15.769542 19.456021,11.452433 21.744398,6.8171106 24,2.5 z"
       id="path1309"
       style="fill:none;stroke:url(#linearGradient5541);stroke-width:0.99999994;stroke-linecap:butt;stroke-linejoin:round;stroke-miterlimit:4;stroke-opacity:1;stroke-dasharray:none;stroke-dashoffset:0;marker:none;visibility:visible;display:inline;overflow:visible" />
    <path
       d="M 24,3.5016193 17.482712,16.179705 3.4573308,18.606589 10.777151,26.144614 C 14.936585,22.073555 18.959155,22.096885 24,22.182123 c 5.040847,0.08524 8.896646,0.454789 12.898383,4.004952 L 44.627479,18.797249 30.344521,16.091954 24,3.5016193 z"
       id="path1322"
       style="fill:url(#linearGradient2476);fill-opacity:1;fill-rule:nonzero;stroke:none;stroke-width:1;marker:none;visibility:visible;display:inline;overflow:visible" />
    <path
       d="m 36.457966,42.854576 c 0,0 -4.318414,-3.742625 -10.076299,-4.894202"
       id="path11014"
       style="fill:none;stroke:#ffa849;stroke-width:1;stroke-linecap:butt;stroke-linejoin:miter;stroke-miterlimit:4;stroke-opacity:1;stroke-dasharray:none;display:inline" />
    <path
       d="m 11.175618,42.854576 c 0,0 4.318413,-3.742625 10.076298,-4.894202"
       id="path11985"
       style="fill:none;stroke:#ffa849;stroke-width:1;stroke-linecap:butt;stroke-linejoin:miter;stroke-miterlimit:4;stroke-opacity:1;stroke-dasharray:none;display:inline" />
    <g
       transform="translate(70.842524,-3.37546)"
       id="g4762"
       style="stroke-width:1;stroke-miterlimit:4;stroke-dasharray:none;display:inline">
      <path
         d="m -36.309046,37.87546 0,-5.001447 6.966522,0 0,5.001447 5.001448,0 0,7 -5.001448,0 0,5 -6.97259,0 -0.02769,-5 -4.999722,0 0,-7 5.033478,0 z"
         id="path2262"
         style="fill:url(#linearGradient4766);fill-opacity:1;fill-rule:evenodd;stroke:#42770c;stroke-width:1;stroke-linecap:butt;stroke-linejoin:round;stroke-miterlimit:4;stroke-opacity:1;stroke-dasharray:none" />
      <path
         d="m -35.342524,38.87546 0,-5 5.00144,0 0,5 4.99856,0 0,4.925922 -4.99856,-0.01562 0,5.089698 -5.00144,0 0,-5.000007 -5,0 0,-4.999993 5,0 z"
         id="path2272"
         style="fill:none;stroke:url(#linearGradient4768);stroke-width:1;stroke-linecap:butt;stroke-linejoin:miter;stroke-miterlimit:4;stroke-opacity:1;stroke-dasharray:none" />
    </g>
  </g>
</svg>

<?xml version="1.0" encoding="UTF-8" standalone="no"?>
<!-- Created with Inkscape (http://www.inkscape.org/) -->
<svg
   xmlns:dc="http://purl.org/dc/elements/1.1/"
   xmlns:cc="http://creativecommons.org/ns#"
   xmlns:rdf="http://www.w3.org/1999/02/22-rdf-syntax-ns#"
   xmlns:svg="http://www.w3.org/2000/svg"
   xmlns="http://www.w3.org/2000/svg"
   xmlns:xlink="http://www.w3.org/1999/xlink"
   xmlns:sodipodi="http://sodipodi.sourceforge.net/DTD/sodipodi-0.dtd"
   xmlns:inkscape="http://www.inkscape.org/namespaces/inkscape"
   width="48px"
   height="48px"
   id="svg3279"
   sodipodi:version="0.32"
   inkscape:version="0.46"
   sodipodi:docname="bookmark-new.svg"
   inkscape:output_extension="org.inkscape.output.svg.inkscape">
  <defs
     id="defs3281">
    <linearGradient
       id="linearGradient8838"
       inkscape:collect="always">
      <stop
         id="stop8840"
         offset="0"
         style="stop-color:#000000;stop-opacity:1;" />
      <stop
         id="stop8842"
         offset="1"
         style="stop-color:#000000;stop-opacity:0;" />
    </linearGradient>
    <radialGradient
       inkscape:collect="always"
       xlink:href="#linearGradient8838"
       id="radialGradient2499"
       gradientUnits="userSpaceOnUse"
       gradientTransform="matrix(1,0,0,0.341176,0,3.047059)"
       cx="62.625"
       cy="4.625"
       fx="62.625"
       fy="4.625"
       r="10.625" />
    <linearGradient
       id="linearGradient3215">
      <stop
         id="stop3217"
         offset="0"
         style="stop-color:#8c7200;stop-opacity:1;" />
      <stop
         id="stop3219"
         offset="1"
         style="stop-color:#c4a000;stop-opacity:1;" />
    </linearGradient>
    <linearGradient
       inkscape:collect="always"
       xlink:href="#linearGradient3215"
       id="linearGradient2467"
       gradientUnits="userSpaceOnUse"
       x1="21.483376"
       y1="36.345936"
       x2="21.483376"
       y2="9.5799999" />
    <linearGradient
       id="linearGradient2250">
      <stop
         id="stop2252"
         offset="0"
         style="stop-color:#ffc349;stop-opacity:1;" />
      <stop
         id="stop2256"
         offset="1"
         style="stop-color:#ff921a;stop-opacity:1" />
    </linearGradient>
    <linearGradient
       inkscape:collect="always"
       xlink:href="#linearGradient2250"
       id="linearGradient2465"
       gradientUnits="userSpaceOnUse"
       x1="21.483376"
       y1="21.671062"
       x2="21.483376"
       y2="33.409534" />
    <linearGradient
       id="linearGradient5178">
      <stop
         id="stop5180"
         offset="0"
         style="stop-color:#ffffff;stop-opacity:1;" />
      <stop
         style="stop-color:#ffdea1;stop-opacity:1;"
         offset="0.8918919"
         id="stop6155" />
      <stop
         id="stop5182"
         offset="1"
         style="stop-color:#ffbd43;stop-opacity:0;" />
    </linearGradient>
    <linearGradient
       inkscape:collect="always"
       xlink:href="#linearGradient5178"
       id="linearGradient5541"
       gradientUnits="userSpaceOnUse"
       x1="21.483376"
       y1="9.463129"
       x2="21.483376"
       y2="26.294357"
       gradientTransform="matrix(1.5575239,0,0,1.5420736,-9.4936458,-12.492178)" />
    <linearGradient
       id="linearGradient3230"
       inkscape:collect="always">
      <stop
         id="stop3232"
         offset="0"
         style="stop-color:#ffefa7;stop-opacity:1" />
      <stop
         id="stop3234"
         offset="1"
         style="stop-color:#ffc64c;stop-opacity:1" />
    </linearGradient>
    <linearGradient
       inkscape:collect="always"
       xlink:href="#linearGradient3230"
       id="linearGradient2476"
       gradientUnits="userSpaceOnUse"
       x1="24.097157"
       y1="9.5958176"
       x2="23.673159"
       y2="22.839001"
       gradientTransform="matrix(1.3469077,0,0,1.3469077,-8.3257881,-6.6326722)" />
    <linearGradient
       id="linearGradient4222"
       inkscape:collect="always">
      <stop
         id="stop4224"
         offset="0"
         style="stop-color:#ffffff;stop-opacity:1;" />
      <stop
         id="stop4226"
         offset="1"
         style="stop-color:#ffffff;stop-opacity:0;" />
    </linearGradient>
    <linearGradient
       inkscape:collect="always"
       xlink:href="#linearGradient4222"
       id="linearGradient4768"
       gradientUnits="userSpaceOnUse"
       gradientTransform="matrix(0.5364316,0,0,0.5331957,-45.663201,28.012179)"
       x1="24.138529"
       y1="-9.8008652"
       x2="24.138529"
       y2="47.272728" />
    <linearGradient
       id="linearGradient2264">
      <stop
         id="stop2266"
         offset="0"
         style="stop-color:#d7e866;stop-opacity:1;" />
      <stop
         id="stop2268"
         offset="1"
         style="stop-color:#8cab2a;stop-opacity:1;" />
    </linearGradient>
    <linearGradient
       inkscape:collect="always"
       xlink:href="#linearGradient2264"
       id="linearGradient4766"
       gradientUnits="userSpaceOnUse"
       gradientTransform="matrix(0.8930497,0,0,0.8876627,-54.222035,20.004749)"
       x1="24.103895"
       y1="15.168831"
       x2="24.103895"
       y2="32.485161" />
  </defs>
  <sodipodi:namedview
     id="base"
     pagecolor="#ffffff"
     bordercolor="#666666"
     borderopacity="1.0"
     inkscape:pageopacity="0.0"
     inkscape:pageshadow="2"
     inkscape:zoom="7"
     inkscape:cx="24"
     inkscape:cy="24"
     inkscape:current-layer="layer1"
     showgrid="true"
     inkscape:grid-bbox="true"
     inkscape:document-units="px"
     inkscape:window-width="640"
     inkscape:window-height="720"
     inkscape:window-x="800"
     inkscape:window-y="88" />
  <metadata
     id="metadata3284">
    <rdf:RDF>
      <cc:Work
         rdf:about="">
        <dc:format>image/svg+xml</dc:format>
        <dc:type
           rdf:resource="http://purl.org/dc/dcmitype/StillImage" />
      </cc:Work>
    </rdf:RDF>
  </metadata>
  <g
     id="layer1"
     inkscape:label="Layer 1"
     inkscape:groupmode="layer">
    <path
       transform="matrix(2.149872,0,0,2.5636643,-110.63573,26.84977)"
       d="M 73.25,4.625 A 10.625,3.625 0 1 1 52,4.625 A 10.625,3.625 0 1 1 73.25,4.625 z"
       sodipodi:ry="3.625"
       sodipodi:rx="10.625"
       sodipodi:cy="4.625"
       sodipodi:cx="62.625"
       id="path8836"
       style="opacity:0.29999999999999999;fill:url(#radialGradient2499);fill-opacity:1;fill-rule:evenodd;stroke:none;stroke-width:0.99999987999999995;stroke-linecap:butt;stroke-linejoin:round;marker:none;marker-start:none;marker-mid:none;marker-end:none;stroke-miterlimit:4;stroke-dasharray:none;stroke-dashoffset:0;stroke-opacity:1;visibility:visible;display:inline;overflow:visible"
       sodipodi:type="arc" />
    <path
       transform="matrix(1.6508808,0,0,1.6568311,-11.466494,-15.045759)"
       d="M 21.483376,9.9840555 C 22.403368,9.9840555 25.369404,17.393062 26.113694,17.93382 C 26.857983,18.474578 34.820922,19.005937 35.105216,19.880902 C 35.389509,20.755867 29.25968,25.866243 28.975387,26.741208 C 28.691094,27.616173 30.646425,35.353577 29.902135,35.894335 C 29.157846,36.435093 22.403368,32.184473 21.483375,32.184473 C 20.563383,32.184473 13.808905,36.435093 13.064615,35.894335 C 12.320326,35.353577 14.275657,27.616172 13.991364,26.741208 C 13.707071,25.866243 7.5772423,20.755866 7.8615356,19.880901 C 8.1458289,19.005937 16.108768,18.474578 16.853058,17.93382 C 17.597347,17.393062 20.563384,9.9840555 21.483376,9.9840555 z"
       inkscape:randomized="0"
       inkscape:rounded="0.1"
       inkscape:flatsided="false"
       sodipodi:arg2="-0.94247777"
       sodipodi:arg1="-1.5707963"
       sodipodi:r2="7.8775673"
       sodipodi:r1="14.32285"
       sodipodi:cy="24.306906"
       sodipodi:cx="21.483376"
       sodipodi:sides="5"
       id="path1307"
       style="display:inline;fill:url(#linearGradient2465);fill-opacity:1;fill-rule:nonzero;stroke:url(#linearGradient2467);stroke-width:0.59997540999999999;stroke-linecap:butt;stroke-linejoin:round;marker:none;marker-start:none;marker-mid:none;marker-end:none;stroke-miterlimit:4;stroke-dasharray:none;stroke-dashoffset:0;stroke-opacity:1;visibility:visible;overflow:visible"
       sodipodi:type="star" />
    <path
       style="display:inline;fill:none;fill-opacity:1;fill-rule:nonzero;stroke:url(#linearGradient5541);stroke-width:0.99999994000000003;stroke-linecap:butt;stroke-linejoin:round;marker:none;marker-start:none;marker-mid:none;marker-end:none;stroke-miterlimit:4;stroke-dasharray:none;stroke-dashoffset:0;stroke-opacity:1;visibility:visible;overflow:visible"
       d="M 24,2.5 C 26.255601,6.8171106 28.478429,11.452433 30.73403,15.769542 C 35.578003,16.559406 40.685229,17.700275 45.529202,18.490139 C 42.079268,21.948123 38.629332,25.406109 35.179398,28.864094 C 35.917536,33.669368 36.392419,38.123635 37.130558,42.928909 C 32.742781,40.748952 28.355003,38.568994 23.967226,36.389035 C 19.579447,38.568994 15.19167,40.748952 10.803892,42.928909 C 11.542029,38.123635 11.929163,33.581617 12.6673,28.776343 C 9.2173666,25.318358 5.7674325,21.860372 2.3174996,18.402388 C 7.1614709,17.612524 12.356449,16.559406 17.20042,15.769542 C 19.456021,11.452433 21.744398,6.8171106 24,2.5 z"
       id="path1309"
       sodipodi:nodetypes="ccccccccccc" />
    <path
       sodipodi:nodetypes="cccczcccc"
       id="path1322"
       d="M 24,3.5016193 L 17.482712,16.179705 L 3.4573308,18.606589 L 10.777151,26.144614 C 14.936585,22.073555 18.959155,22.096885 24,22.182123 C 29.040847,22.267361 32.896646,22.636912 36.898383,26.187075 L 44.627479,18.797249 L 30.344521,16.091954 L 24,3.5016193 z"
       style="display:inline;fill:url(#linearGradient2476);fill-opacity:1;fill-rule:nonzero;stroke:none;stroke-width:1;stroke-linecap:butt;stroke-linejoin:round;marker:none;marker-start:none;marker-mid:none;marker-end:none;stroke-miterlimit:4;stroke-dasharray:none;stroke-dashoffset:0;stroke-opacity:1;visibility:visible;overflow:visible" />
    <path
       id="path11014"
       d="M 36.457966,42.854576 C 36.457966,42.854576 32.139552,39.111951 26.381667,37.960374"
       style="display:inline;fill:none;fill-rule:evenodd;stroke:#ffa849;stroke-width:1;stroke-linecap:butt;stroke-linejoin:miter;stroke-miterlimit:4;stroke-dasharray:none;stroke-opacity:1" />
    <path
       id="path11985"
       d="M 11.175618,42.854576 C 11.175618,42.854576 15.494031,39.111951 21.251916,37.960374"
       style="display:inline;fill:none;fill-rule:evenodd;stroke:#ffa849;stroke-width:1;stroke-linecap:butt;stroke-linejoin:miter;stroke-miterlimit:4;stroke-dasharray:none;stroke-opacity:1" />
    <g
       id="g4762"
       transform="translate(70.842524,-3.37546)"
       style="display:inline;stroke-width:1;stroke-miterlimit:4;stroke-dasharray:none">
      <path
         style="fill:url(#linearGradient4766);fill-opacity:1;fill-rule:evenodd;stroke:#42770c;stroke-width:1;stroke-linecap:butt;stroke-linejoin:round;stroke-miterlimit:4;stroke-dasharray:none;stroke-opacity:1"
         d="M -36.309046,37.87546 L -36.309046,32.874013 L -29.342524,32.874013 L -29.342524,37.87546 L -24.341076,37.87546 L -24.341076,44.87546 L -29.342524,44.87546 L -29.342524,49.87546 L -36.315114,49.87546 L -36.342802,44.87546 L -41.342524,44.87546 L -41.342524,37.87546 L -36.309046,37.87546 z"
         id="path2262"
         sodipodi:nodetypes="ccccccccccccc" />
      <path
         style="fill:none;fill-opacity:1;fill-rule:evenodd;stroke:url(#linearGradient4768);stroke-width:1;stroke-linecap:butt;stroke-linejoin:miter;stroke-miterlimit:4;stroke-dasharray:none;stroke-opacity:1"
         d="M -35.342524,38.87546 L -35.342524,33.87546 L -30.341084,33.87546 L -30.341084,38.87546 L -25.342524,38.87546 L -25.342524,43.801382 L -30.341084,43.785762 L -30.341084,48.87546 L -35.342524,48.87546 L -35.342524,43.875453 L -40.342524,43.875453 L -40.342524,38.87546 L -35.342524,38.87546 z"
         id="path2272"
         sodipodi:nodetypes="ccccccccccccc" />
    </g>
  </g>
</svg>
